devices/24/nm-device-wired-secure.svg

<svg xmlns="http://www.w3.org/2000/svg" viewBox="0 0 24 24" version="1"><path d="M9 6v5h2v1H4v1h3v1H5v5h6v-5H9v-1h6v1h-2v5h3.97c0-.386.13-.72.343-1H14v-3h4v1.75a3.076 3.076 0 0 1 1-2V14h-2v-1h3v-1h-7v-1h2V6H9zm1 1h4v3h-4V7zm-4 8h4v3H6v-3z" color="#000" fill="#fff" overflow="visible"/><path d="M21 15c-1.108 0-2 .91-2 2.03V18c-.554 0-1 .446-1 1v3c0 .554.446 1 1 1h4c.554 0 1-.446 1-1v-3c0-.554-.446-1-1-1v-.97c0-1.12-.892-2.03-2-2.03zm0 1c.554 0 1 .442 1 1v1h-2v-1c0-.558.446-1 1-1z" fill="#fff"/></svg>

<?xml version="1.0" encoding="UTF-8" standalone="no"?>
<svg
   xmlns:dc="http://purl.org/dc/elements/1.1/"
   xmlns:cc="http://creativecommons.org/ns#"
   xmlns:rdf="http://www.w3.org/1999/02/22-rdf-syntax-ns#"
   xmlns:svg="http://www.w3.org/2000/svg"
   xmlns="http://www.w3.org/2000/svg"
   id="svg4073"
   height="24"
   width="24"
   version="1.0">
  <metadata
     id="metadata18">
    <rdf:RDF>
      <cc:Work
         rdf:about="">
        <dc:format>image/svg+xml</dc:format>
        <dc:type
           rdf:resource="http://purl.org/dc/dcmitype/StillImage" />
        <dc:title />
      </cc:Work>
    </rdf:RDF>
  </metadata>
  <defs
     id="defs4075" />
  <path
     id="rect2986"
     d="M 9 6 L 9 11 L 11 11 L 11 12 L 4 12 L 4 13 L 7 13 L 7 14 L 5 14 L 5 19 L 11 19 L 11 14 L 9 14 L 9 13 L 15 13 L 15 14 L 13 14 L 13 19 L 16.96875 19 C 16.96875 18.614028 17.101181 18.281311 17.3125 18 L 14 18 L 14 15 L 18 15 L 18 16.75 C 18.076175 15.965077 18.437285 15.253892 19 14.75 L 19 14 L 17 14 L 17 13 L 20 13 L 20 12 L 13 12 L 13 11 L 15 11 L 15 6 L 9 6 z M 10 7 L 14 7 L 14 10 L 10 10 L 10 7 z M 6 15 L 10 15 L 10 18 L 6 18 L 6 15 z "
     style="color:#000000;fill:#ffffff;fill-opacity:1;fill-rule:nonzero;stroke:none;stroke-width:1;marker:none;visibility:visible;display:inline;overflow:visible;enable-background:accumulate" />
  <path
     style="fill:#ffffff"
     id="rect2822"
     d="m 21,15 c -1.108,0 -2,0.91076 -2,2.0312 v 0.969 c -0.554,0 -1,0.446 -1,1 v 3 c 0,0.554 0.446,1 1,1 h 4 c 0.554,0 1,-0.446 1,-1 v -3 c 0,-0.554 -0.446,-1 -1,-1 v -0.96875 c 0,-1.12 -0.892,-2.031 -2,-2.031 z m 0,1 c 0.554,0 1,0.44236 1,1 v 1 h -2 v -1 c 0,-0.55764 0.446,-1 1,-1 z" />
</svg>
